X:1
T:Psalm 149
T:V 1
L:1/4
M:14/4
I:linebreak $
K:C
V:1 treble nm="Pipe Organ" snm="Org."
V:1
 C2 C D E2 G2 F E D3 z |$ G2 A G F E F2 D2 C3 z |$[M:12/4] G2 A A c B A2 G3 z |$ %3
w: Sing tot Gods eer met lof en dank|'n nu- we lied met nu- we klank,|o al sy gun- ste- ling- e!|
[M:14/4] C2 G G A G A2 B2 c3 z |$ c2 B A G A G2 F2 E3 z |$[M:12/4] C2 E G F E D2 C4 |] %6
w: Laat Is- r'el voor sy Ma- ker juig,|laat Si- on voor sy Ko- ning buig,|die HEER van al- le din- ge!|

